!!!OTL: Folk song Number 4
!!!CNT: Chinese
!! Irregular meter
**kern
*k[f#c#g#]
*M2/4
=1
8a
(16b
16cc#)
8cc#
8cc#
=2
8ee
8cc#
8cc#
(16cc#
[16b
=3
4.b]
8cc#)
=4
8a
8cc#
8b
8a
=5
(16b
16a
8f#)
4e
=6
(16f#
4..e)
=7
(16b
16cc#)
8a
8b
(16b
16cc#)
=8
8b
8e
(16b
16cc#)
[(8a
=9
4.a]
16b
16cc#)
=10
8a
(16b
16a)
8b
8cc#
=11
(16b
16a
8f#)
4e
=12
(16f#
4..e)
=13
(16cc#
16b)
8g#
(16a
16b)
(16a
16b)
=14
8g#
8g#
8ee
(16cc#
[16b
=15
4.b]
8cc#)
=16
8a
8b
8e
8e
=17
(16b
16a
8f#)
4e
=18
(16f#
4..e)
=19
(16cc#
16b)
8a
(16f#
16a)
(16f#
16a)
*M3/4
=20
8b
8b
8e
[(8a
8a]
16b
16cc#)
*M2/4
=21
8a
8e
8b
(16b
16cc#)
=22
4e
4b;
*M3/4
=23
(16b
16a
8f#
2e)
*M2/4
=24
8cc#
8cc#
(16b
16cc#)
8a
=25
(16b
16ee)
8ee
(8ee
8cc#)
=26
(16cc#
[16b
4b]
8cc#)
=27
8b
(16b
16a)
8e
8b
=28
(16b
16a
8f#)
4e
=29
(16f#
4..e)
=30
8a
(16b
16a)
(16f#
16a)
(16f#
16a)
!! page 4
=31
(16a
16b)
8b
8e
[(8a
=32
4.a]
16b
16cc#)
=33
(16a
16b)
(16b
16a)
8e
8e
=34
(16a
16b
8cc#)
4b;
=35
(16b
16a
8f#
[4e
=36
4e)]
4r
=37
(16cc#
16b)
8a
8b
(16b
16cc#)
=38
8a
8a
8.ee
(16cc#
=39
4.b
8cc#)
=40
8e
8e
8a
(16b
16a)
=41
8e
8b;
(16b
16a
8f#)
=42
2e
=43
8b
8b
8a
(16b
16cc#)
=44
8b
(16a
16b)
8e
[(8a
=45
8a]
16b
16cc#)
8b
8b
=46
(16a
16b)
(16b
16a)
8e
[8b
=47
4b;]
(16b
16a
8f#
=48
2e)
==
*-
!!!PPR: Yin yueh ch'u pan she
!!!OPR: Chung-kuo min ko Chung-kuo yin yueh yen chiu so pien [Chinese folk songs]
!!!OCL: Chung-kuo yin yueh yen chiu so
!!!PPP: Beijing, China
!!!PDT: 1959///
!!!SML: Edward Johnson Library, University of Toronto M1804.C4694C5
!!!PPG: pp.3-4
!!!ENC: David Huron
!!!EMD: Paul von Hippel updated this file in the following ways (1998/9/29/):
!!!EMD:  (1) changed the representation of slurs from curly braces to parentheses 
!!!EMD:  (2) changed freeform comments into reference records and tandem interpretations
!!!EMD:  (3) corrected the author, title, author, and call number of the printed source 
!!!EEV: Version 2.0
